packages/kaspersky-hexa-ui-icons/src/iconsSVGs/24/Passkey.svg

<svg xmlns="http://www.w3.org/2000/svg" width="24" height="24" fill="none" viewBox="0 0 24 24"><path fill="#000" fill-rule="evenodd" d="M8 7c0-2.2091 1.7909-4 4-4s4 1.7909 4 4-1.7909 4-4 4-4-1.7909-4-4m4-2c-1.1046 0-2 .8954-2 2s.8954 2 2 2 2-.8954 2-2-.8954-2-2-2m9.9095 7.3508c0 1.2952-.7886 2.4063-1.9119 2.8791l-.0106 1.3209.9693 1.0895-.9693 1.1225.9693 1.2247-1.943 1.943-1.4181-1.4181v-5.2748c-1.1331-.4684-1.9303-1.5845-1.9303-2.8868 0-1.7244 1.3979-3.1223 3.1223-3.1223s3.1223 1.3979 3.1223 3.1223m-3.1224-.3077a.7607.7607 0 1 0 0-1.5215.7607.7607 0 0 0 0 1.5215M7 19h8.5952v2H7c-1.6569 0-3-1.3431-3-3v-.8C4 14.3281 6.3281 12 9.2 12h4.4767a5 5 0 0 0-.0118.3508c0 .5773.0954 1.132.2712 1.6492H9.2C7.4327 14 6 15.4327 6 17.2v.8c0 .5523.4477 1 1 1"/></svg>

<svg width="24" height="24" viewBox="0 0 24 24" fill="none" xmlns="http://www.w3.org/2000/svg">
<path fill-rule="evenodd" clip-rule="evenodd" d="M8 7C8 4.79086 9.79086 3 12 3C14.2091 3 16 4.79086 16 7C16 9.20914 14.2091 11 12 11C9.79086 11 8 9.20914 8 7ZM12 5C10.8954 5 10 5.89543 10 7C10 8.10457 10.8954 9 12 9C13.1046 9 14 8.10457 14 7C14 5.89543 13.1046 5 12 5Z" fill="black"/>
<path fill-rule="evenodd" clip-rule="evenodd" d="M19.9976 15.2299C21.1209 14.7571 21.9095 13.646 21.9095 12.3508C21.9095 10.6264 20.5116 9.22852 18.7872 9.22852C17.0628 9.22852 15.6649 10.6264 15.6649 12.3508C15.6649 13.6531 16.4621 14.7692 17.5952 15.2376L17.5952 20.5124L19.0133 21.9305L20.9563 19.9875L19.987 18.7628L20.9563 17.6403L19.987 16.5508L19.9976 15.2299ZM19.5478 11.2824C19.5478 11.7025 19.2072 12.0431 18.7871 12.0431C18.3671 12.0431 18.0265 11.7025 18.0265 11.2824C18.0265 10.8624 18.3671 10.5218 18.7871 10.5218C19.2072 10.5218 19.5478 10.8624 19.5478 11.2824Z" fill="black"/>
<path d="M7 19H15.5952L15.5952 21H7C5.34315 21 4 19.6569 4 18V17.2C4 14.3281 6.32812 12 9.2 12H13.6767C13.6688 12.1159 13.6649 12.2329 13.6649 12.3508C13.6649 12.9281 13.7603 13.4827 13.9361 14H9.2C7.43269 14 6 15.4327 6 17.2V18C6 18.5523 6.44772 19 7 19Z" fill="black"/>
</svg>
